widgets/actionbutton.svg

<?xml version="1.0" encoding="UTF-8" standalone="no"?>
<!-- Created with Inkscape (http://www.inkscape.org/) -->

<svg
   xmlns:osb="http://www.openswatchbook.org/uri/2009/osb"
   xmlns:dc="http://purl.org/dc/elements/1.1/"
   xmlns:cc="http://creativecommons.org/ns#"
   xmlns:rdf="http://www.w3.org/1999/02/22-rdf-syntax-ns#"
   xmlns:svg="http://www.w3.org/2000/svg"
   xmlns="http://www.w3.org/2000/svg"
   xmlns:xlink="http://www.w3.org/1999/xlink"
   xmlns:sodipodi="http://sodipodi.sourceforge.net/DTD/sodipodi-0.dtd"
   xmlns:inkscape="http://www.inkscape.org/namespaces/inkscape"
   width="36"
   height="36"
   id="svg2"
   sodipodi:version="0.32"
   inkscape:version="0.91 r13725"
   version="1.0"
   sodipodi:docname="actionbutton.svg"
   inkscape:output_extension="org.inkscape.output.svgz.inkscape"
   inkscape:export-filename="arrow-up.png"
   inkscape:export-xdpi="11.25"
   inkscape:export-ydpi="11.25">
  <sodipodi:namedview
     id="base"
     pagecolor="#323232"
     bordercolor="#ffffff"
     borderopacity="1"
     gridtolerance="10000"
     guidetolerance="10"
     objecttolerance="10"
     inkscape:pageopacity="1"
     inkscape:pageshadow="2"
     inkscape:zoom="1"
     inkscape:cx="37.655169"
     inkscape:cy="21.364658"
     inkscape:document-units="px"
     inkscape:current-layer="hover"
     width="128px"
     height="128px"
     showgrid="false"
     inkscape:window-width="1110"
     inkscape:window-height="711"
     inkscape:window-x="103"
     inkscape:window-y="118"
     inkscape:snap-nodes="true"
     inkscape:snap-global="true"
     inkscape:window-maximized="0"
     inkscape:showpageshadow="false"
     fit-margin-top="0"
     fit-margin-left="0"
     fit-margin-right="0"
     fit-margin-bottom="0"
     showborder="false">
    <inkscape:grid
       enabled="true"
       visible="true"
       empspacing="4"
       empopacity="0.4"
       opacity="0.2"
       empcolor="#0000ff"
       color="#0000ff"
       spacingy="1px"
       spacingx="1px"
       originy="-68px"
       originx="36px"
       type="xygrid"
       id="GridFromPre046Settings"
       snapvisiblegridlinesonly="true" />
  </sodipodi:namedview>
  <defs
     id="defs4">
    <linearGradient
       inkscape:collect="always"
       id="linearGradient4283">
      <stop
         style="stop-color:#ffffff;stop-opacity:1"
         offset="0"
         id="stop4285" />
      <stop
         style="stop-color:#ffffff;stop-opacity:0"
         offset="1"
         id="stop4287" />
    </linearGradient>
    <linearGradient
       osb:paint="solid"
       id="linearGradient6476">
      <stop
         id="stop6478"
         offset="0"
         style="stop-color:#ffffff;stop-opacity:1;" />
    </linearGradient>
    <linearGradient
       id="linearGradient4938">
      <stop
         offset="0"
         style="stop-color:#e0e0e0;stop-opacity:0.75294119"
         id="stop4940" />
      <stop
         offset="1"
         style="stop-color:#e0e0e0;stop-opacity:1"
         id="stop4942" />
    </linearGradient>
    <linearGradient
       inkscape:collect="always"
       xlink:href="#linearGradient4938"
       id="linearGradient4054"
       x1="-28"
       y1="40"
       x2="-28"
       y2="24"
       gradientUnits="userSpaceOnUse" />
    <linearGradient
       inkscape:collect="always"
       xlink:href="#linearGradient4938"
       id="linearGradient4349"
       gradientUnits="userSpaceOnUse"
       x1="-28"
       y1="40"
       x2="-28"
       y2="24" />
    <radialGradient
       inkscape:collect="always"
       xlink:href="#linearGradient4283"
       id="radialGradient4289"
       cx="8"
       cy="-1.4210855e-14"
       fx="8"
       fy="-1.4210855e-14"
       r="8"
       gradientUnits="userSpaceOnUse"
       gradientTransform="matrix(-2,0,0,-1,24,0)" />
    <radialGradient
       inkscape:collect="always"
       xlink:href="#linearGradient4283"
       id="radialGradient4319"
       cx="8"
       cy="36"
       fx="8"
       fy="36"
       r="8"
       gradientUnits="userSpaceOnUse"
       gradientTransform="matrix(0,-1,2,0,-64,44)" />
  </defs>
  <metadata
     id="metadata7">
    <rdf:RDF>
      <cc:Work
         rdf:about="">
        <dc:format>image/svg+xml</dc:format>
        <dc:type
           rdf:resource="http://purl.org/dc/dcmitype/StillImage" />
        <dc:title />
        <dc:creator>
          <cc:Agent>
            <dc:title>obnosim</dc:title>
          </cc:Agent>
        </dc:creator>
        <cc:license
           rdf:resource="http://creativecommons.org/licenses/by-nc-sa/3.0/" />
      </cc:Work>
      <cc:License
         rdf:about="http://creativecommons.org/licenses/by-nc-sa/3.0/">
        <cc:permits
           rdf:resource="http://creativecommons.org/ns#Reproduction" />
        <cc:permits
           rdf:resource="http://creativecommons.org/ns#Distribution" />
        <cc:requires
           rdf:resource="http://creativecommons.org/ns#Notice" />
        <cc:requires
           rdf:resource="http://creativecommons.org/ns#Attribution" />
        <cc:prohibits
           rdf:resource="http://creativecommons.org/ns#CommercialUse" />
        <cc:permits
           rdf:resource="http://creativecommons.org/ns#DerivativeWorks" />
        <cc:requires
           rdf:resource="http://creativecommons.org/ns#ShareAlike" />
      </cc:License>
    </rdf:RDF>
  </metadata>
  <g
     style="opacity:0.875"
     id="normal"
     transform="translate(36,-24)">
    <path
       sodipodi:type="arc"
       style="fill:url(#linearGradient4054);fill-opacity:1;stroke:none"
       id="path3031"
       sodipodi:cx="-28"
       sodipodi:cy="32"
       sodipodi:rx="8"
       sodipodi:ry="8"
       d="m -20,32 a 8,8 0 0 1 -8,8 8,8 0 0 1 -8,-8 8,8 0 0 1 8,-8 8,8 0 0 1 8,8 z" />
    <path
       style="opacity:1;fill:url(#radialGradient4289);fill-opacity:1;stroke:none;stroke-width:1;stroke-linecap:round;stroke-linejoin:miter;stroke-miterlimit:4;stroke-dasharray:none;stroke-opacity:1"
       d="M 8 0 A 8 8 0 0 0 0 8 A 8 8 0 0 0 8 16 A 8 8 0 0 0 16 8 A 8 8 0 0 0 8 0 z M 8 1 A 7 7 0 0 1 15 8 A 7 7 0 0 1 8 15 A 7 7 0 0 1 1 8 A 7 7 0 0 1 8 1 z "
       transform="translate(-36,24)"
       id="path4278" />
  </g>
  <g
     id="hover">
    <path
       style="opacity:0.875;fill:url(#radialGradient4319);fill-opacity:1;stroke:none"
       d="m 8,20 c -4.418278,0 -8,3.581722 -8,8 0,4.418278 3.581722,8 8,8 4.418278,0 8,-3.581722 8,-8 0,-4.418278 -3.581722,-8 -8,-8 z m 0,1 c 3.865993,0 7,3.134007 7,7 0,3.865993 -3.134007,7 -7,7 -3.865993,0 -7,-3.134007 -7,-7 0,-3.865993 3.134007,-7 7,-7 z"
       id="path4333"
       inkscape:connector-curvature="0" />
    <path
       inkscape:connector-curvature="0"
       id="path4337"
       d="m 8,20 c -4.418278,0 -8,3.581722 -8,8 0,4.418278 3.581722,8 8,8 4.418278,0 8,-3.581722 8,-8 0,-4.418278 -3.581722,-8 -8,-8 z"
       style="opacity:0.187;fill:url(#radialGradient4319);fill-opacity:1;stroke:none"
       sodipodi:nodetypes="sssss" />
  </g>
  <path
     style="opacity:0.875;fill:#ffffff;fill-opacity:1;stroke:none"
     d="m 28,20 c -4.418278,0 -8,3.581722 -8,8 0,4.418278 3.581722,8 8,8 4.418278,0 8,-3.581722 8,-8 0,-4.418278 -3.581722,-8 -8,-8 z m 0,1 c 3.865993,0 7,3.134007 7,7 0,3.865993 -3.134007,7 -7,7 -3.865993,0 -7,-3.134007 -7,-7 0,-3.865993 3.134007,-7 7,-7 z"
     id="focus"
     inkscape:connector-curvature="0" />
  <g
     style="opacity:0.375"
     id="pressed"
     transform="translate(36,-24)">
    <path
       d="m -20,32 a 8,8 0 0 1 -8,8 8,8 0 0 1 -8,-8 8,8 0 0 1 8,-8 8,8 0 0 1 8,8 z"
       sodipodi:ry="8"
       sodipodi:rx="8"
       sodipodi:cy="32"
       sodipodi:cx="-28"
       id="path4331"
       style="fill:url(#linearGradient4349);fill-opacity:1;stroke:none"
       sodipodi:type="arc"
       transform="matrix(1,0,0,-1,20,64)" />
    <path
       sodipodi:nodetypes="scscs"
       inkscape:connector-curvature="0"
       id="path4351"
       d="m -8,24 c -4.205767,0 -7.646819,3.251882 -7.96875,7.375 C -15.55907,28.349464 -12.142136,26 -8,26 c 4.1421356,0 7.55907005,2.349464 7.96875,5.375 C -0.35318145,27.251882 -3.7942333,24 -8,24 z"
       style="opacity:0.18800001;fill:#000000;fill-opacity:1;stroke:none" />
  </g>
</svg>

<?xml version="1.0" encoding="UTF-8" standalone="no"?>
<svg id="svg2" xmlns:rdf="http://www.w3.org/1999/02/22-rdf-syntax-ns#" xmlns="http://www.w3.org/2000/svg" xmlns:osb="http://www.openswatchbook.org/uri/2009/osb" height="36" width="36" version="1.0" xmlns:cc="http://creativecommons.org/ns#" xmlns:xlink="http://www.w3.org/1999/xlink" xmlns:dc="http://purl.org/dc/elements/1.1/">
	<defs id="defs4">
		<linearGradient id="linearGradient4283">
			<stop id="stop4285" style="stop-color:#ffffff" offset="0"/>
			<stop id="stop4287" style="stop-color:#ffffff;stop-opacity:0" offset="1"/>
		</linearGradient>
		<linearGradient id="linearGradient4938">
			<stop id="stop4940" style="stop-color:#e0e0e0;stop-opacity:.75294" offset="0"/>
			<stop id="stop4942" style="stop-color:#e0e0e0" offset="1"/>
		</linearGradient>
		<linearGradient id="linearGradient4054" y2="24" xlink:href="#linearGradient4938" gradientUnits="userSpaceOnUse" x2="-28" y1="40" x1="-28"/>
		<radialGradient id="radialGradient4289" xlink:href="#linearGradient4283" gradientUnits="userSpaceOnUse" cy="-1.4211e-14" cx="8" gradientTransform="matrix(-2,0,0,-1,24,0)" r="8"/>
		<radialGradient id="radialGradient4319" xlink:href="#linearGradient4283" gradientUnits="userSpaceOnUse" cy="36" cx="8" gradientTransform="matrix(0,-1,2,0,-64,44)" r="8"/>
	</defs>
	<metadata id="metadata7">
		<rdf:RDF>
			<cc:Work rdf:about="">
				<dc:format>image/svg+xml</dc:format>
				<dc:type rdf:resource="http://purl.org/dc/dcmitype/StillImage"/>
				<dc:title/>
				<dc:creator>
					<cc:Agent>
						<dc:title>obnosim</dc:title>
					</cc:Agent>
				</dc:creator>
				<cc:license rdf:resource="http://creativecommons.org/licenses/by-nc-sa/3.0/"/>
			</cc:Work>
			<cc:License rdf:about="http://creativecommons.org/licenses/by-nc-sa/3.0/">
				<cc:permits rdf:resource="http://creativecommons.org/ns#Reproduction"/>
				<cc:permits rdf:resource="http://creativecommons.org/ns#Distribution"/>
				<cc:requires rdf:resource="http://creativecommons.org/ns#Notice"/>
				<cc:requires rdf:resource="http://creativecommons.org/ns#Attribution"/>
				<cc:prohibits rdf:resource="http://creativecommons.org/ns#CommercialUse"/>
				<cc:permits rdf:resource="http://creativecommons.org/ns#DerivativeWorks"/>
				<cc:requires rdf:resource="http://creativecommons.org/ns#ShareAlike"/>
			</cc:License>
		</rdf:RDF>
	</metadata>
	<g id="normal" style="opacity:.875" transform="translate(36,-24)">
		<path id="path3031" style="fill:url(#linearGradient4054)" d="m-20 32a8 8 0 0 1 -8 8 8 8 0 0 1 -8 -8 8 8 0 0 1 8 -8 8 8 0 0 1 8 8z"/>
		<path id="path4278" style="opacity:1;fill:url(#radialGradient4289)" d="m8 0a8 8 0 0 0 -8 8 8 8 0 0 0 8 8 8 8 0 0 0 8 -8 8 8 0 0 0 -8 -8zm0 1a7 7 0 0 1 7 7 7 7 0 0 1 -7 7 7 7 0 0 1 -7 -7 7 7 0 0 1 7 -7z" transform="translate(-36,24)"/>
	</g>
	<g id="hover">
		<path id="path4333" style="opacity:.875;fill:url(#radialGradient4319)" d="m8 20c-4.4183 0-8 3.5817-8 8s3.5817 8 8 8 8-3.5817 8-8-3.5817-8-8-8zm0 1c3.866 0 7 3.134 7 7s-3.134 7-7 7-7-3.134-7-7 3.134-7 7-7z"/>
		<path id="path4337" d="m8 20c-4.4183 0-8 3.5817-8 8s3.5817 8 8 8 8-3.5817 8-8-3.5817-8-8-8z" style="opacity:.187;fill:url(#radialGradient4319)"/>
	</g>
	<path id="focus" style="opacity:.875;fill:#ffffff" d="m28 20c-4.4183 0-8 3.5817-8 8s3.5817 8 8 8 8-3.5817 8-8-3.5817-8-8-8zm0 1c3.866 0 7 3.134 7 7s-3.134 7-7 7-7-3.134-7-7 3.134-7 7-7z"/>
	<g id="pressed" style="opacity:.375" transform="translate(36,-24)">
		<path id="path4331" style="fill:url(#linearGradient4054)" d="m-20 32a8 8 0 0 1 -8 8 8 8 0 0 1 -8 -8 8 8 0 0 1 8 -8 8 8 0 0 1 8 8z" transform="matrix(1,0,0,-1,20,64)"/>
		<path id="path4351" d="m-8 24c-4.2058 0-7.6468 3.2519-7.9688 7.375.410-3.026 3.827-5.375 7.969-5.375 4.1421 0 7.5591 2.3495 7.9688 5.375-.32198-4.123-3.763-7.375-7.9688-7.375z" style="opacity:0.188;fill:#000000"/>
	</g>
</svg>
